icons/default/Shopping.svg

<path
	d="M6.17128 11.828L4.05128 13.95M15.0003 15L13.0003 20L9.00028 9.00001L20.0003 13L15.0003 15ZM15.0003 15L20.0003 20L15.0003 15ZM7.18828 2.23901L7.96528 5.13601L7.18828 2.23901ZM5.13628 7.96501L2.23828 7.18801L5.13628 7.96501ZM13.9503 4.05001L11.8283 6.17201L13.9503 4.05001Z"
	stroke="none" stroke-width="1.5" stroke-linecap="round" stroke-linejoin="round" />

<path d="m6.171 11.828-2.12 2.122M15.001 15l-2 5L9 9l11 4-5 2Zm0 0 5 5-5-5ZM7.187 2.239l.777 2.897-.777-2.897ZM5.136 7.965l-2.898-.777 2.898.777ZM13.95 4.05l-2.122 2.122L13.95 4.05Z"/>
